X: 11026
T: ED and PRISCILLA'S WALTZ
C: Bob McQuillen 15 Sept 94
B: Bob's Note Book 11 #26
R: waltz
Z: 2020 John Chambers <jc:trillian.mit.edu>
M: 3/4
L: 1/8
K: G
GA \
| "G"B2 dB AG | "D"A2 dB AB | "Em"G2 GB AG | "Bm"F2 D2 B,D | "C"E2 CD EG | "G"D2 B,D GF | "A7"E2 EG cG | "D7"B2 A2 dc |
| "G"B2 dB AG | "Bm"Ad B3 A | "Em"G2 GB AG | "Bm"FD B,2 CD | "C"E2 EF GA | "G"BG D2  Bd | "D7"c2 B2 A2 | "G"G4 :|
|: GE \
| "G"DG Bd BG | "C"EG Bd BG | "G"DG BA GF | E2 D2 FG | "Am"A2 AB cB | "D7"B2 AB cd |     e2 d3  c | "G"B4 GE |
| "G"DG Bd BG | "C"EG Bd BG | "G"DG BA GF | E2 D2 GF |  "C"E2 EG ce |  "G"dB G2 Bc | "D7"BA G2 F2 | "G"G4 :|
%%begintext align
%% Now here is a waltz to
%% help my dear friends Ed Bonull and Priscilla Mathes
%% (of Fort Washington, PA) celebrate their Happy
%% Wedding Day on October 8, 1994 - with much
%% love from their old Kwack :-) . XXOO
%%endtext

%%sep 1 1 500

%%sep 1 1 500

